!!!!SEGMENT: pl-wn--mus-iii-147-376_badarzewska-tekla--sympathie-melodie-italienne.krn
!!!cenid: 18xx:3539
!!!COM: Bądarzewska, Tekla
!!!COM-rismID: pe30005936
!!!CDT: ~1830-1861/09/29
!!!CNT: Polish
!!!OTL: Sympathie – mélodie italienne
!!!PDT:
!!!AGN:
!!!SMS-siglum: PL-Wn
!!!SMS-shelfmark: Mus.III.147.376
!!!SMS-shelfwork: W
!!!SMS-variant:
!!!SMS-altvar:
!!!NIFC-rismSourceID:
!!!NIFC-rismChildID:
!!!NIFC-islandoraID:
!!!URL-pdf-islandora:
!!!URL-scan: https://polona.pl/item/sympathie-melodie-italienne,MTA0ODA5Ng/2 @EN{Scan on Polona} @PL{Skany w portalu Polona}
!!!ONB-nifc:
!!!OMD: Moderato.
!!!AIN: 2 piano
!!!key: E-
**kern	**fing	**kern	**fing	**dynam
*part2	*	*part1	*	*part1
*staff2	*	*staff1	*	*
*I"PIANO.	*	*I"PIANO.	*	*
*I"Pianoforte	*	*I"Pianoforte	*	*
*I'pf	*	*I'pf	*	*
*Ipiano	*	*Ipiano	*	*
*ICklav	*	*ICklav	*	*
*clefF4	*	*clefG2	*	*
*k[b-e-a-]	*	*k[b-e-a-]	*	*
*E-:	*	*E-:	*	*
*M4/4	*	*M4/4	*	*
*met(c)	*	*met(c)	*	*
=1	=1	=1	=1	=1
!!!OMD-mod: Moderato
!!LO:TX:t=P:problem:oznaczenia m.d., m.g., oraz fing - problem z wyświetleniem przy przeniesieniu dźwieków (<,>) na dolną/górną pięciolinię
!LO:SIC:s=N(16EE-\LL>:v	!	!	!	!
*xywh-3:327,987,2699,784	*	*xywh-3:327,987,2699,784	*	*
N(16EE-\LL	.	8.r	.	p
16BB-\	.	.	.	.
16E-\JJ	.	.	.	.
!	!	!LO:SIC:s=16G/:v	!	!
16r	.	16G\	.	<
!	!	!LO:SIC:s=16B-LL>:v	!	!
4r	.	16B-\LL	.	.
.	.	16e-\	.	.
.	.	16g\	.	.
.	.	16b-\JJ	.	.
4r	.	16ee-\LL	.	.
.	.	16gg\	.	.
.	.	16bb-\	.	.
.	.	16eee-\JJ	.	.
8.r	.	8ggg\LN)	.	[
.	.	16r	.	.
!	!	!	!	!LO:DY:rj
(16d\	4	(16dd\Jk	2	mf
=2	=2	=2	=2	=2
2f^^\	2	2ff^^\	4	.
8e-\)	3	8ee-\)	.	.
8r	.	8r	.	.
4r	.	4r	.	.
=3	=3	=3	=3	=3
!LO:SIC:s=N(16CC\LL>:v	!	!	!	!
N(16CC\LL	.	8.r	.	p
16GG\	.	.	.	.
16C\JJ	.	.	.	.
16rEE	.	16E-</	.	.
!	!	!	!	!LO:DY:a
4r	.	16G/LL	.	<
.	.	16c/	.	.
.	.	16e-/	.	.
.	.	16g/JJ	.	.
4r	.	16cc\LL	.	.
.	.	16ee-\	.	.
.	.	16gg\	.	.
.	.	16ccc\JJ	.	.
!	!	!	!	!LO:MO:null:mod=[
8.r	.	8eee-\LN)	.	[[
.	.	16r	.	.
(16Bn\	.	(16bn\Jk	.	mf
!!linebreak:original
=4	=4	=4	=4	=4
*xywh-3:323,1668,2695,659	*	*xywh-3:323,1668,2695,659	*	*
2d^^\	.	2dd^^\	.	.
8c\)	.	8cc\)	.	.
8r	.	8r	.	.
4r	.	4r	.	.
=5	=5	=5	=5	=5
N(16AA-\LL	.	4ryy	.	.
16E-\	.	.	.	.
16F\	.	.	.	.
16A-\JJ	.	.	.	.
!	!	!	!LO:MO:mod=*null:null	!
*	*	*	*below	*
4r	.	16c/LL	1	.
.	.	16e-/	.	.
.	.	16f/	.	.
.	.	16a-/JJ	.	.
*	*	*	*above	*
2r	.	16cc\LL	1	.
.	.	16ee-\	.	.
.	.	16ff\	.	.
.	.	16aa-\JJ	.	.
.	.	8ccc\N)	.	.
.	.	8r	.	.
=6	=6	=6	=6	=6
N(16AAn\LL	.	4r	.	.
16E-\	3	.	.	.
16F\	2	.	.	.
16c\JJ	.	.	.	.
!	!	!	!LO:MO:mod=*null:null	!
*	*	*	*below	*
!	!	!	!	!LO:DY:a
4r	.	16e-/LL	2	<
.	.	16f/	1	.
.	.	16an/	.	.
.	.	16cc/JJ	.	.
2r	.	16ee-\LL	.	.
*	*	*	*above	*
.	.	16ff\	1	.
.	.	16aan\	.	.
.	.	16ccc\JJ	.	.
.	.	8eee-\N)	.	[
.	.	8r	.	.
!!linebreak:original
=7	=7	=7	=7	=7
*xywh-3:293,2273,2712,659	*	*xywh-3:293,2273,2712,659	*	*
8BB-/	.	4r	.	.
8r	.	.	.	.
*clefG2	*	*	*	*
*	*	*8va	*	*
[2.gg [2.ee- [2.b-\	.	[4bbb- [4eee- [4bb-^^\	.	f
!	!	!LO:MO:mod=!LO&colon;TX&colon;b&colon;i&colon;t=rapidamente	!	!
!	!	!LO:TX:b:i:t=rapidamente.	!	!
.	.	16bbb-]LL 16eee-] 16bb-\]	.	.
.	.	(16fff#X\	2	.
.	.	8qaaa-/	.	.
.	.	16ggg\	.	.
.	.	16fff#\JJ	.	.
.	.	16ggg\LL	.	.
.	.	16ddd\	1	.
.	.	8qfffn/	4	.
.	.	16eee-\	3	.
.	.	16ddd\JJ	2	.
*	*	*X8va	*	*
=8	=8	=8	=8	=8
8gg] 8ee-] 8b-\]	.	16eee-\LL	.	.
.	.	16aan\	.	.
.	.	8qccc/	4	.
8r	.	16bb-\	3	.
.	.	16aa\JJ	.	.
4r	.	16bb-\LL	3	.
.	.	16ff#X\	2	.
.	.	8qaa-/	.	.
.	.	16gg\	.	.
.	.	16ff#\JJ	.	.
2r	.	16gg\LL	.	.
.	.	16dd\	1	.
.	.	8qffn/	4	.
.	.	16ee-\	3	.
.	.	16dd\JJ	.	.
.	.	16ee-/LL	.	.
.	.	16b-/	.	.
.	.	16g/	.	.
.	.	16e-/JJ	.	.
*clefF4	*	*	*	*
!!linebreak:original
=9	=9	=9	=9	=9
*xywh-3:305,2838,2648,856	*	*xywh-3:305,2838,2648,856	*	*
4r	.	8d/)	.	.
.	.	8r	.	.
N([4BBB-\	.	4r	.	.
16BBB-\LL]	.	4r	.	.
16DD\	.	.	.	.
16FF\	.	.	.	.
16AA-\JJ	.	.	.	.
!	!	!LO:SIC:s=16rB<:v	!	!
16BB-\	.	16rG<	.	.
*	*	*	*below	*
8.r	.	16D</LL	1	.
.	.	16F</	.	.
.	.	16A-</JJ	.	.
=10	=10	=10	=10	=10
!	!	!	!	!LO:DY:a
1r	.	16B-/LL	.	<
!	!	!	!LO:MO:mod=*above	!
*	*	*	*below	*
.	.	16d/	1	.
.	.	16f/	.	.
.	.	16a-/JJ	.	.
.	.	16b-\LL	.	.
*	*	*	*above	*
.	.	16dd\	1	.
.	.	16ff\	.	.
.	.	16aa-\JJ	.	.
*	*	*8va	*	*
.	.	16bb-\LL	.	.
.	.	16ddd\	.	.
.	.	16fff\	.	.
.	.	16aaa-\JJ	.	.
.	.	16bbb-\LL	.	.
.	.	16dddd\	.	.
.	.	16ffff\	.	.
.	.	16gggg\JJ	.	[[
=	=	=	=	=
.	.	16qqffff/LL	.	.
.	.	16qqgggg/JJ	.	.
2r;	.	2aaaa-;\N)	.	.
*	*	*X8va	*	*
!	!	!LO:MO:mod=!LO&colon;TX&colon;b&colon;i&colon;t=lunga	!	!
!	!	!LO:TX:b:i:t=lunga.	!	!
4r;	.	4r;	.	.
!!pagebreak:original
=11||	=11||	=11||	=11||	=11||
!!!OMD:
!!!OMD-mod: Andante placido
!	!	!LO:TX:a:B:t=Andante placido.:mod=	!	!
!	!	!LO:MO:mod=!null:null	!	!
!	!	!LO:TX:a:B:t=m.d.	!	!
!LO:MO:mod=!LO&colon;TX&colon;a&colon;t=m.d.	!	!	!	!
!null	!	!	!	!
*xywh-4:252,173,2731,944	*	*xywh-4:252,173,2731,944	*	*
4rAA	.	(8.B-</L	.	.
.	.	16An</Jk	.	.
=12	=12	=12	=12	=12
4EE-\	.	8.c</L	.	.
.	.	16B-</Jk	.	.
!LO:MO:mod=!null:null	!	!	!	!
!LO:TX:b:B:t=m.g.	!	!	!	!
!	!	!LO:MO:mod=!LO&colon;TX&colon;b&colon;t=m.g.	!	!
!	!	!null	!	!
(>4b-> 4g>'>/	.	4.G</)	.	.
4ee-> 4b->'>/)	.	.	.	.
!	!	!LO:MO:mod=!LO&colon;TX&colon;b&colon;i&colon;t=la melodia ben legato	!	!
!	!	!LO:TX:b:i:t=la melodia ben legato.	!	!
.	.	(>8B-</L	.	.
4rAA	.	8.e-</	.	.
.	.	16d</Jk	.	.
=13	=13	=13	=13	=13
4AA-\	.	8.f</L	.	.
.	.	16e-</Jk	.	.
!LO:MO:mod=!null:null	!	!	!	!
!LO:TX:a:B:t=m.g.	!	!	!	!
!	!	!LO:MO:mod=!LO&colon;TX&colon;a&colon;t=m.g.	!	!
!	!	!null	!	!
(>4ee-> 4cc> 4a->'>/	.	2c</)	.	.
4ff> 4ee-> 4cc>'>/)	.	.	.	.
4rAA	.	(8d</L	.	<
.	.	8e-</J	.	.
=14	=14	=14	=14	=14
.	.	8qe-</	.	.
4BB-\	.	4g</	.	.
(>4dd> 4b-> 4a->'>/	.	8f</L	.	[
.	.	8d</J	.	.
!	!	!LO:MO:mod=!null:null	!	!
!	!	!LO:TUP:b	!	!
4ff> 4dd> 4b->'>/)	.	20B-</LL	.	.
.	.	20c</	.	.
.	.	20B-</	.	.
.	.	20An</	.	.
.	.	20B-</JJ	.	.
4r	.	8c</L)	.	.
.	.	16r<	.	.
.	.	(16A<-X/Jk	.	.
!!linebreak:original
=15	=15	=15	=15	=15
*xywh-4:242,1015,2690,739	*=*xywh-4:242,1015,2690,739	*xywh-4:242,1015,2690,739	*	*
4EE-\	.	2F#X</	.	>
(>4ee-> 4an>'>/	.	.	.	.
4ee-> 4b->'>/)	.	4G</)	.	]
4r	.	(8.B-</L	.	.
.	.	16An</Jk	.	.
=16	=16	=16	=16	=16
.	.	8qAn</	.	.
4EE-\	.	8.c</L	.	.
.	.	16B-</Jk	.	.
(>4b-> 4g>'>/	.	4.G</)	.	.
4ee-> 4b->'>/)	.	.	.	.
!	!	!LO:SIC:s=(<8B-</L:v	!	!
.	.	(>8B-</L	.	<
4r	.	8.e-</	.	.
.	.	16d</Jk	.	.
=17	=17	=17	=17	=17
4CC\	.	8.f</L	.	.
.	.	16e-</Jk	.	.
(>4ee-> 4cc>'>/	.	4.g</)	.	[
4gg> 4ee->'>/)	.	.	.	.
.	.	(>8g</L	.	.
4r	.	8f</	.	.
.	.	8e-</J)	.	.
=18	=18	=18	=18	=18
4DD\	.	(8.e-</L	.	f
.	.	16d</Jk)	.	.
.	.	(<16qqd</LL	.	.
!	!	!LO:MO:mod=!LO&colon;TX&colon;b&colon;i&colon;t=espress.	!	!
!	!	!LO:TX:b:i:t=espress&colon;	!	!
.	.	16qqf</JJ	.	.
4b-> 4g>/	.	(>8.e-</L)	.	.
.	.	16d</Jk)	.	.
4DD\	.	(8.d</L	.	.
.	.	16An</Jk	.	.
4an> 4f#X>/	.	8.c</L	.	>
.	.	16B-</Jk	.	.
!!linebreak:original
=19	=19	=19	=19	=19
*xywh-4:266,1658,2654,703	*	*xywh-4:266,1658,2654,703	*	*
4GG^\	.	[2G</)	.	.
(>4dd> 4b-> 4g>'>/	.	.	.	.
4gg> 4dd> 4b->'>/)	.	8G</L]	.	]
!	!	!LO:MO:mod=!null:null	!	!
*	*	*Xtuplet	*	*
!	!	!LO:TX:t=P:problem:brak oznaczenia trioli	!	!
.	.	(>24B-</L	.	.
.	.	24c</	.	.
.	.	24B-</JJ	.	.
4r	.	8An</L	.	.
.	.	8B-</J	.	.
=20	=20	=20	=20	=20
4AA-X\	.	8.c</L	.	.
.	.	16B-</Jk	.	.
(>4b-> 4a->'>/	.	4.d</)	.	.
4dd> 4b->'>/)	.	.	.	.
*	*	*tuplet	*	*
!	!	!LO:MO:mod=!null:null	!	!
!	!	!LO:TUP:b	!	!
.	.	(>24B-</LL	.	.
.	.	24c</	.	.
.	.	24B-</JJ	.	.
4r	.	8An</L	.	.
.	.	8B-</J	.	.
=21	=21	=21	=21	=21
4GG\	.	8.c</L	.	.
.	.	16B-</Jk	.	.
(>4b-> 4g>'>/	.	4.e-</)	.	.
4ee-> 4b->'>/)	.	.	.	.
!	!	!LO:MO:mod=!null:null	!	!
!	!	!LO:TUP:b	!	!
.	.	(>24c</LL	.	.
.	.	24d-X</	.	.
.	.	24c</JJ	.	.
4r	.	8Bn</L	.	.
.	.	8c</J	.	.
=22	=22	=22	=22	=22
4BB-\	.	8.d-X</L	.	.
.	.	16c</Jk	.	.
(>4cc> 4b->'>/	.	4.en</)	.	.
4een> 4cc>'>/)	.	.	.	.
!	!	!LO:MO:mod=!null:null	!	!
!	!	!LO:TUP:b	!	!
.	.	(>24c</LL	.	<
.	.	24d-</	.	.
.	.	24c</JJ	.	.
4r	.	8Bn</L	.	.
.	.	8c</J	.	.
!!linebreak:original
=23	=23	=23	=23	=23
*xywh-4:244,2258,2674,713	*	*xywh-4:244,2258,2674,713	*	*
4AA-\	.	8.d-X</L	.	.
.	.	16c</Jk	.	.
(>4cc> 4a->'>/	.	4.f</)	.	[
4ff> 4cc>'>/)	.	.	.	.
!	!	!LO:MO:mod=!null:null	!	!
!	!	!LO:TUP:b	!	!
.	.	(>24c</LL	.	.
.	.	24d-</	.	.
.	.	24c</JJ	.	.
4r	.	8Bn</L	.	.
.	.	8c</J	.	.
=24	=24	=24	=24	=24
4FF\	.	4.a-</	.	f
(>4ff> 4cc>'>/	.	.	.	.
.	.	8g</)	.	.
!	!	!LO:MO:mod=!null:null	!	!
!	!	!LO:TUP:b	!	!
4aa-> 4cc>'>/)	.	(>12g</L	.	.
.	.	12f</	.	.
.	.	12e-</J	.	.
!	!	!LO:MO:mod=!null:null	!	!
!	!	!LO:TUP:b	!	!
4r	.	12d</L	.	.
.	.	12e-</	.	.
.	.	12c</J	.	.
=25	=25	=25	=25	=25
4BB-\	.	8.d</L	.	.
.	.	16c</Jk	.	.
(>4b-> 4g>'>/	.	4.B-</)	.	.
4ee-> 4b->'>/)	.	.	.	.
.	.	(>8B-</L	.	.
4r	.	8An</	.	.
.	.	8B-</J	.	.
=26	=26	=26	=26	=26
4BB-\	.	8.c-X</L	.	.
.	.	16D</Jk	.	.
(>4dd> 4a->'>/	.	4.cn</)	.	.
4ff> 4dd>'>/)	.	.	.	.
.	.	(>8c</L	.	.
4r	.	8B-</	.	.
.	.	8A-X</J	.	.
!!linebreak:original
=27	=27	=27	=27	=27
*	*	*^	*	*
*xywh-4:241,2838,2681,787	*xywh-4:241,2838,2681,787	*xywh-4:241,2838,2681,787	*xywh-4:241,2838,2681,787	*	*
4EE-\	.	2F#X</	2.ryyyy	.	.
(>4ee-> 4an>'>/	.	.	.	.	.
4ee-> 4b->'>/)	.	8G</L)	.	.	p
!	!	!LO:MO:mod=!null:null	!	!	!
!	!	!LO:TUP:b	!	!	!
.	.	(>24B-</L	.	.	.
.	.	24c</	.	.	.
.	.	24B-</JJ	.	.	.
4r	.	8An</L	4ryyyy	.	.
.	.	8B-</J	.	.	.
=28	=28	=28	=28	=28	=28
4AA-\	.	8.c</L	2.ryyyy	.	.
.	.	16B-</Jk	.	.	.
(>4b-> 4a->'>/	.	4.d</)	.	.	.
4dd> 4b->'>/)	.	.	.	.	.
!	!	!LO:MO:mod=!null:null	!	!	!
!	!	!LO:TUP:b	!	!	!
!	!	!LO:SIC:s=(<24B-</LL:v	!	!	!
.	.	(>24B-</LL	.	.	<
.	.	24c</	.	.	.
.	.	24B-</JJ	.	.	.
4r	.	8An</L	4ryyyy	.	.
.	.	8B-</J	.	.	.
*	*	*v	*v	*	*
=29	=29	=29	=29	=29
4GG\	.	8.c</L	.	.
.	.	16B-</Jk	.	.
(>4b-> 4g>'>/	.	4.e-</)	.	[
4ee-> 4b->'>/)	.	.	.	.
!	!	!LO:MO:mod=!null:null	!	!
!	!	!LO:TUP:b	!	!
.	.	(>24c</LL	.	.
.	.	24d-X</	.	.
.	.	24c</JJ	.	.
4r	.	8Bn</L	.	.
.	.	8c</J	.	.
=30	=30	=30	=30	=30
!	!	!	!	!LO:MO:mod=!LO&colon;HP&colon;b&colon;i&colon;t=molto cresc.
!	!	!	!	!LO:HP:t=molto cres&colon;
4BB-\	.	8.d-X</L	.	<
.	.	16c</Jk	.	.
!	!	!LO:MO:mod=!null:null	!	!
!	!	!LO:N:vis=4	!	!
(>4cc> 4b->'>/	.	4.en</)	.	.
4een> 4cc>'>/)	.	.	.	.
!	!	!LO:MO:mod=!null:null	!	!
!	!	!LO:TUP:b	!	!
.	.	(>24c</LL	.	.
.	.	24d-</	.	.
.	.	24c</JJ	.	.
4r	.	8Bn</L	.	.
.	.	8c</J	.	.
!!pagebreak:original
=31	=31	=31	=31	=31
*xywh-5:333,367,2653,792	*	*xywh-5:333,367,2653,792	*	*
!	!	!LO:SIC:s=8.d-</L:v	!	!
4AA-\	.	8.d</L	.	.
.	.	16c</Jk	.	.
(>4cc> 4a->'>/	.	4.f</)	.	.
4ff> 4cc>'>/)	.	.	.	.
!	!	!LO:MO:mod=!null:null	!	!
!	!	!LO:TUP:b	!	!
!	!	!LO:SIC:s=N(>24c</LL:v	!	!
.	.	N(24c</LL	.	.
!	!	!LO:SIC:s=24d-</:v	!	!
.	.	24d</	.	.
.	.	24c</JJ	.	.
4r	.	8Bn</L	.	.
.	.	8c</J	.	.
=32	=32	=32	=32	=32
!	!	!LO:MO:mod=!LO&colon;TX&colon;b&colon;t=m.d.	!	!
!	!	!LO:TX:b:B:t=m.d.	!	!LO:DY:a
4FF\	.	4.a-\N)	.	f
(>4ff> 4cc>'>/	.	.	.	.
.	.	(<8g\	.	.
4aa-> 4cc>'>/)	.	12b-\L	.	.
.	.	12a-\	.	.
.	.	12g\J	.	.
!	!	!LO:MO:mod=!null:null	!	!
!	!	!LO:TUP:b	!	!
4r	.	12f</L	.	.
.	.	12e-</	.	.
.	.	12c</J)	.	.
=33	=33	=33	=33	=33
4BB-\	.	(8.e-</L	.	.
.	.	16G</Jk	.	.
(>4b-> 4g>'>/	.	4.B-</)	.	.
4ee-> 4b->'>/)	.	.	.	.
.	.	(>8B-</L	.	.
4r	.	8An</	.	.
.	.	8B-</J	.	.
=34	=34	=34	=34	=34
4BBB-\	.	8.c-X</L	.	>
.	.	16D</Jk	.	.
(>4a-> 4f>'>/	.	4.cn</)	.	]
4dd> 4a->'>/)	.	.	.	.
!	!	!LO:MO:mod=!LO&colon;TX&colon;b&colon;i&colon;t=ad lib	!	!
!	!	!LO:TX:b:i:t=ad lib&colon;	!	!
.	.	(>8F</L	.	.
4r	.	8.A-X</	.	.
.	.	16D</Jk	.	.
!!linebreak:original
=35	=35	=35	=35	=35
*xywh-5:351,1035,2624,742	*	*xywh-5:351,1035,2624,742	*	*
4EE-\	.	2.E-</)	.	.
(>4b-> 4g>'>/	.	.	.	p
4ee-> 4b-> 4g>'>/)	.	.	.	.
4r	.	4r	.	.
=36||	=36||	=36||	=36||	=36||
!!!OMD:
!!!OMD-mod: Più moto	*	*xywh-5:351,1035,2624,742	*	*
!	!	!	!	!LO:MO:mod=!LO&colon;DY&colon;b&colon;i&colon;t=%s energico
!	!	!LO:TX:a:B:t=Più moto.:mod=	!	!LO:DY:t=%s energico.
!	!	!LO:SIC:s=[2ee- [<2g [2e-\:v	!	!
[2c [2G [2C\	.	[2ee- [2g [2e-\	.	f
8c]L 8G] 8C\]	.	8ee-]L 8g] 8e-\]	.	.
8c 8G 8C\	.	8cc 8g 8e-\	.	.
8Bn 8A- 8C\	.	8bn 8a- 8f\	.	.
8BJ 8A- 8C\	.	8ddJ 8a- 8f\	.	.
=37	=37	=37	=37	=37
4c 4G 4C\	.	4cc 4g 4e-/	.	.
(16CC\LL	.	(16C</LL	.	.
16BBBn\	.	16BBn</	.	.
16CC\	.	16C</	.	.
16BBB\JJ	.	16BB</JJ	.	.
8CC\)	.	8C</)	.	.
8r	.	16r	.	.
.	.	(16c/	.	.
!	!	!LO:SIC:s=16e-\LL>:v	!	!
4r	.	16e-\LL	.	.
.	.	16g\	.	.
.	.	16cc\	.	.
.	.	16ee-\JJ	.	.
=38	=38	=38	=38	=38
[2e- [2c [2E-\	.	[2gg [2cc [2g\)	.	.
8e-]L 8c] 8E-\]	.	8gg]L 8cc] 8g\]	.	.
8c 8G 8C\	.	8ee- 8g 8e-\	.	.
8F 8FF\	.	8dd 8a- 8d\	.	.
8F#XJ 8FF#X\	.	8ccJ 8an 8e-\	.	.
!!linebreak:original
=39	=39	=39	=39	=39
*xywh-5:298,1696,2670,724	*	*xywh-5:298,1696,2670,724	*	*
4G 4GG/	.	4bn 4g 4d/	.	.
(16GGG\LL	.	(16GG</LL	.	.
16FFF#X\	.	16FF#X</	.	.
16GGG\	.	16GG</	.	.
16FFF#\JJ	.	16FF#</JJ	.	.
8GGG\)	.	8GG</)	.	.
8r	.	16r	.	.
.	.	(16g/	.	.
4r	.	16an\LL	.	.
.	.	16b\	.	.
.	.	16cc\	.	.
.	.	16dd\JJ	.	.
=40	=40	=40	=40	=40
[2c [2G [2C\	.	[2ee- [<2g [2e-\)	.	.
8c]L 8G] 8C\]	.	8ee-]L 8g] 8e-\]	.	.
8c 8G 8C\	.	8cc 8g 8e-\	.	.
8Bn 8A- 8C\	.	8bn 8a- 8f\	.	.
8BJ 8A- 8C\	.	8ddJ 8a- 8f\	.	.
=41	=41	=41	=41	=41
4c 4G 4C\	.	4cc 4g 4e-/	.	.
(16CC\LL	.	(16C</LL	.	.
16BBBn\	.	16BBn</	.	.
16CC\	.	16C</	.	.
16BBB\JJ	.	16BB</JJ	.	.
8CC\)	.	8C</)	.	.
8r	.	16r	.	.
.	.	(>16f#X/	.	.
4r	.	16g/LL	.	.
.	.	16an/	.	.
.	.	16b-X/	.	.
.	.	16cc/JJ	.	.
!!linebreak:original
=42	=42	=42	=42	=42
*xywh-5:319,2307,2663,760	*	*xywh-5:319,2307,2663,760	*	*
[2B- [2D\	.	[2dd [2b- [2g [2d/)	.	.
8B-]L 8D\]	.	8dd]L 8b-] 8g] 8d/]	.	.
8d 8D\	.	8b- 8g/	.	.
8c#X 8D\	.	8an 8g 8en/	.	.
8cnJ 8D\	.	8ddJ 8f#X 8d/	.	.
=43	=43	=43	=43	=43
4B- 4G\	.	4g 4d/	.	.
(16GGG\LL	.	(16GG</LL	.	.
16FFF#X\	.	16FF#X</	.	.
16GGG\	.	16GG</	.	.
16FFF#\JJ	.	16FF#</JJ	.	.
8GGG\)	.	8GG</)	.	.
8r	.	8r	.	.
4r	.	4r	.	.
=44	=44	=44	=44	=44
[2Fn [2GG/	.	[2a- [2Bn/	.	mf
8F]L 8GG/]	.	8a-]L 8B/]	.	.
8F 8GG/	.	8d 8B/	.	.
8E- 8GG/	.	8e- 8B/	.	.
8DJ 8GG/	.	8fJ 8B/	.	.
!!linebreak:original
=45	=45	=45	=45	=45
*xywh-5:287,2959,2670,739	*	*xywh-5:287,2959,2670,739	*	*
4E- 4GG/	.	4g 4c/	.	.
(16GGG\LL	.	(16GG</LL	.	.
16FFF#X\	.	16FF#X</	.	.
16GGG\	.	16GG</	.	.
16FFF#\JJ	.	16FF#</JJ	.	.
8GGG\)	.	8GG</)	.	.
8r	.	16r	.	.
.	.	(>16G/	.	.
4r	.	16An/LL	.	.
.	.	16Bn/	.	.
.	.	16c/	.	.
.	.	16d/JJ	.	.
=46	=46	=46	=46	=46
[2C [2GG/	.	[2e- [2F#X/)	.	.
8C]L 8GG/]	.	8e-]L 8F#/]	.	.
8C 8GG/	.	8e- 8F#/	.	.
8D 8GG/	.	8d 8F#/	.	.
8E-J 8GG/	.	8cJ 8F#/	.	.
=47	=47	=47	=47	=47
4D 4GG/	.	4Bn 4G/	.	.
(16GGG\LL	.	(16GG</LL	.	.
16FFF#X\	.	16FF#X</	.	.
16GGG\	.	16GG</	.	.
16FFF#\JJ	.	16FF#</JJ	.	.
8GGG\)	.	8GG</)	.	.
8r	.	8r	.	.
4r	.	4r	.	.
!!pagebreak:original
=48	=48	=48	=48	=48
*xywh-6:303,465,2601,693	*	*xywh-6:303,465,2601,693	*	*
[2Fn [2GG/	.	[2a- [2Bn/	.	.
8F]L 8GG/]	.	8a-]L 8B/]	.	.
8F 8GG/	.	8d 8B/	.	.
8E- 8GG/	.	8e- 8B/	.	.
8DJ 8GG/	.	8fJ 8B/	.	.
=49	=49	=49	=49	=49
4E- 4GG/	.	4g 4c/	.	.
(16CC\LL	.	(16C</LL	.	.
16BBBn\	.	16BBn</	.	.
16CC\	.	16C</	.	.
16BBB\JJ	.	16BB</JJ	.	.
8CC\)	.	8C</)	.	.
!	!	!	!	!LO:MO:null:mod=.
8r	.	16r	.	<
!	!	!	!	!LO:MO:mod=!LO&colon;HP&colon;ed=
!	!	!	!	!null
!	!	!	!	!LO:MO:null:mod=<
.	.	(>16f#X/	.	.
4r	.	16g/LL	.	.
.	.	16a-/	.	.
.	.	16b-/	.	.
.	.	16cc/JJ	.	[[
=50	=50	=50	=50	=50
[2B-X [2C\	.	[2dd-X [2en/)	.	f
8B-]L 8C\]	.	8dd-]L 8e/]	.	.
8B- 8C\	.	8g 8e/	.	.
8A- 8C\	.	8a- 8e/	.	.
8GJ 8C\	.	8b-J 8e/	.	.
!!linebreak:original
=51	=51	=51	=51	=51
*xywh-6:309,1095,2592,705	*	*xywh-6:309,1095,2592,705	*	*
4A- 4F\	.	4cc 4f/	.	.
(16AAA-\LL	.	(16AA-</LL	.	.
16GGG\	.	16GG</	.	.
16AAA-\	.	16AA-</	.	.
16GGG\JJ	.	16GG</JJ	.	.
8AAA-\)	.	8AA-</)	.	.
!	!	!LO:SIC:s=8r:v	!	!
8r	.	8r<	.	.
4c 4A-\	.	4f#X 4e-/	.	.
=52	=52	=52	=52	=52
*	*	*^	*	*
*xywh-6:309,1095,2592,705	*	*xywh-6:309,1095,2592,705	*xywh-6:309,1095,2592,705	*	*
!	!	!	!	!	!LO:MO:mod=!LO&colon;HP&colon;b&colon;i&colon;t=dim. e rit.
!	!	!	!	!	!LO:HP:t=dim&colon; e rit&colon;
4c 4G\	.	8gL 8e-/	2ryyyy	.	>
.	.	16r	.	.	.
.	.	(>16g/Jk	.	.	.
4r	.	16fnX/LL	.	.	.
.	.	16e-/	.	.	.
.	.	16d/	.	.	.
.	.	16c/JJ	.	.	.
(2F (2GG/	.	4.a-/	2Bn\	.	.
.	.	8g/	.	.	.
*	*	*v	*v	*	*
=53	=53	=53	=53	=53
[2E- [2C\))	.	[2c [2G/)	.	.
!	!	!LO:MO:mod=!LO&colon;TX&colon;b&colon;i&colon;t=lunga	!	!
!	!	!LO:TX:b:i:t=lunga.	!	!
4E-] 4C;<\]	.	4c] 4G;/]	.	.
!	!	!LO:MO:mod=!null:null	!	!
!	!	!LO:TX:a:B:t=m.d.	!	!
!LO:MO:mod=!LO&colon;TX&colon;a&colon;t=m.d.	!	!	!	!
!null	!	!	!	!
4r	.	(8.B-</L	.	p
.	.	16An</Jk	.	.
!!linebreak:original
=54	=54	=54	=54	=54
!!!OMD:
!!!OMD-mod: Tempo primo
*xywh-6:287,1728,2682,688	*	*xywh-6:287,1728,2682,688	*	*
!	!	!LO:TX:a:B:t=Tempo Iº:mod=	!	!
.	.	8qAn</	.	.
4EE-\	.	8.c</L	.	.
.	.	16B-</Jk	.	.
!LO:MO:mod=!null:null	!	!	!	!
!LO:TX:b:B:t=m.g.	!	!	!	!
!	!	!LO:MO:mod=!LO&colon;TX&colon;b&colon;t=m.g.	!	!
!	!	!null	!	!
!LO:SIC:s=(>4b-> 4g>'>/:v	!	!	!	!
(<4b-> 4g>'/	.	4.G</)	.	.
!LO:SIC:s=4ee-> 4b->'>/):v	!	!	!	!
4ee-> 4b->'/)	.	.	.	.
!	!	!LO:MO:mod=!LO&colon;TX&colon;b&colon;i&colon;t=la melodia ben legato	!	!
!	!	!LO:TX:b:i:t=la melodia ben legato.	!	!
.	.	(>8B-</	.	.
!LO:SIC:s=4r:v	!	!	!	!
4rAA	.	8.e-</L	.	.
.	.	16d</Jk	.	.
=55	=55	=55	=55	=55
4AA-\	.	8.f</L	.	.
.	.	16e-</Jk	.	.
(>4ee-> 4cc> 4a->'>/	.	2c</)	.	.
4ff> 4ee-> 4cc>'>/)	.	.	.	.
!LO:SIC:s=4r:v	!	!	!	!
4rAA	.	(8d</L	.	<
.	.	8e-</J	.	.
=56	=56	=56	=56	=56
.	.	8qe-</	.	.
4BB-\	.	4g</	.	.
(>4dd> 4b-> 4a->'>/	.	8f</L	.	[
.	.	8d</J	.	.
!	!	!LO:MO:mod=!null:null	!	!
!	!	!LO:TUP:b	!	!
4ff> 4dd> 4b->'>/)	.	20B-</LL	.	.
.	.	20c</	.	.
.	.	20B-</	.	.
.	.	20An</	.	.
.	.	20B-</JJ	.	.
!LO:SIC:s=4r:v	!	!	!	!
4rAA	.	8c</L)	.	.
.	.	16r<	.	.
.	.	(16A-X</Jk	.	.
!!linebreak:original
=57	=57	=57	=57	=57
*xywh-6:283,2327,2674,705	*	*xywh-6:283,2327,2674,705	*	*
4EE-\	.	2F#X</	.	.
(>4ee-> 4an>'>/	.	.	.	.
4ee-> 4b->'>/)	.	4G</)	.	.
4r	.	(8.B-</L	.	.
.	.	16An</Jk	.	.
=58	=58	=58	=58	=58
.	.	8qA<n/	.	.
4EE-\	.	8.c</L	.	.
.	.	16B-</Jk	.	.
(>4b-> 4g>'>/	.	4.G</)	.	.
4ee-> 4b->'>/)	.	.	.	.
!	!	!LO:TX:t=P:problem:brak 16r	!	!
!	!	!LO:SIC:s=16rd<:v	!	!
.	.	16ryy	.	.
!	!	!LO:SIC:s=(<16B-</KL:v	!	!
.	.	(>16B-</KL	.	<
4r	.	8.e-</	.	.
.	.	16d</Jk	.	.
=59	=59	=59	=59	=59
.	.	8qd</	.	.
4CC\	.	8.f</L	.	.
.	.	16e-</Jk	.	.
(>4ee-> 4cc>'>/	.	4.g</)	.	[
4gg> 4ee->'>/)	.	.	.	.
.	.	(>8g</L	.	.
4r	.	8f</	.	.
.	.	8e-</J)	.	.
=60	=60	=60	=60	=60
4DD\	.	(8.e-</L	.	.
.	.	16d</Jk)	.	.
!	!	!LO:MO:mod=!LO&colon;TX&colon;b&colon;i&colon;t=espress.	!	!
!	!	!LO:TX:b:i:t=espresss&colon;	!	!
.	.	(<16qqd</LL	.	.
.	.	16qqf</JJ	.	.
4b-> 4g>/	.	(>8.e-</L)	.	.
.	.	16d</Jk)	.	.
4DD\	.	(8.d</L	.	.
.	.	16An</Jk	.	.
4an> 4f#X>/	.	8.c</L	.	>
.	.	16B-</Jk	.	.
!!linebreak:original
=61	=61	=61	=61	=61
*xywh-6:301,2943,2627,765	*	*xywh-6:301,2943,2627,765	*	*
4GG\	.	[2G</)	.	.
(>4dd> 4b-> 4g>'>/	.	.	.	]
4gg> 4dd> 4b->'>/)	.	8G</L]	.	.
!	!	!LO:MO:mod=!null:null	!	!
!	!	!LO:TUP:b	!	!
.	.	(>24B-</L	.	.
.	.	24c</	.	.
.	.	24B-</JJ	.	.
4r	.	8An</L	.	.
.	.	8B-</J	.	.
=62	=62	=62	=62	=62
4AA-X\	.	8.c</L	.	.
.	.	16B-</Jk	.	.
(>4b-> 4a->'>/	.	4.d</)	.	.
4dd> 4b->'>/)	.	.	.	.
!	!	!LO:MO:mod=!null:null	!	!
!	!	!LO:TUP:b	!	!
.	.	(>24B-</LL	.	.
.	.	24c</	.	.
.	.	24B-</JJ	.	.
4r	.	8An</L	.	.
.	.	8B-</J	.	.
=63	=63	=63	=63	=63
4GG\	.	8.c</L	.	.
.	.	16B-</Jk	.	.
(>4b-> 4g>'>/	.	4.e-</)	.	.
4ee-> 4b->'>/)	.	.	.	.
!	!	!LO:MO:mod=!null:null	!	!
!	!	!	!	!LO:MO:mod=!LO&colon;HP&colon;b&colon;i&colon;t=cresc.
!	!	!LO:TUP:b	!	!LO:HP:t=cres&colon;
.	.	(>24c</LL	.	<
.	.	24d-X</	.	.
.	.	24c</JJ	.	.
4r	.	8Bn</L	.	.
.	.	8c</J	.	.
=64	=64	=64	=64	=64
4BB-\	.	8.d-X</L	.	.
.	.	16c</Jk	.	.
(>4cc> 4b->'>/	.	4.en</)	.	.
4een> 4cc>'>/)	.	.	.	.
!	!	!LO:MO:mod=!null:null	!	!
!	!	!LO:TUP:b	!	!
.	.	(>24c</LL	.	<
.	.	24d-</	.	.
.	.	24c</JJ	.	.
4r	.	8Bn</L	.	.
.	.	8c</J	.	.
!!pagebreak:original
=65	=65	=65	=65	=65
*xywh-7:285,322,2713,733	*	*xywh-7:285,322,2713,733	*	*
4AA-\	.	8.d-X</L	.	.
.	.	16c</Jk	.	.
(>4cc> 4a->'>/	.	4.f</)	.	[
4ff> 4cc>'>/)	.	.	.	.
!	!	!LO:MO:mod=!null:null	!	!
!	!	!LO:TUP:b	!	!
.	.	(>24c</LL	.	.
.	.	24d-</	.	.
.	.	24c</JJ	.	.
!LO:SIC:s=4r:v	!	!	!	!
4rAA	.	8Bn</L	.	.
.	.	8c</J	.	.
=66	=66	=66	=66	=66
4FF\	.	4.a-</	.	f
(>4ff> 4cc>'>/	.	.	.	.
.	.	8g</)	.	.
!	!	!LO:MO:mod=!null:null	!	!
!	!	!LO:TUP:b	!	!
4aa-> 4cc>'>/)	.	(>12g</L	.	.
.	.	12f</	.	.
.	.	12e-</J	.	.
!	!	!LO:MO:mod=!null:null	!	!
!LO:SIC:s=4r:v	!	!LO:TUP:b	!	!
4rAA	.	12d</L	.	.
.	.	12e-</	.	.
.	.	12c</J	.	.
=67	=67	=67	=67	=67
4BB-\	.	8.d</L	.	.
.	.	16c</Jk	.	.
(>4b-> 4g>'>/	.	4.B-</)	.	.
4ee-> 4b->'>/)	.	.	.	.
.	.	(>8B-</L	.	.
!LO:SIC:s=4r:v	!	!	!	!
4rAA	.	8An</	.	.
.	.	8B-</J	.	.
=68	=68	=68	=68	=68
4BB-\	.	8.c-X</L	.	.
.	.	16D</Jk	.	.
(>4dd> 4a->'>/	.	4.cn</)	.	>
4ff> 4dd>'>/)	.	.	.	.
.	.	(>8c</L	.	.
!LO:SIC:s=4r:v	!	!	!	!
4rAA	.	8B-</	.	.
.	.	8A-</J	.	]]
!!linebreak:original
=69	=69	=69	=69	=69
*xywh-7:321,964,2650,745	*	*xywh-7:321,964,2650,745	*	*
4EE-\	.	2F#X</	.	.
(>4ee-> 4an>'>/	.	.	.	.
4ee-> 4b->'>/)	.	8G</L)	.	p
!	!	!LO:MO:mod=!null:null	!	!
!	!	!LO:TUP:b	!	!
.	.	(>24B-</L	.	.
.	.	24c</	.	.
.	.	24B-</JJ	.	.
4r	.	8An</L	.	.
.	.	8B-</J	.	.
=70	=70	=70	=70	=70
4AA-\	.	8.c</L	.	.
.	.	16B-</Jk	.	.
(>4b-> 4a->'>/	.	4.d</)	.	.
4dd> 4b->'>/)	.	.	.	.
!	!	!LO:MO:mod=!null:null	!	!
!	!	!LO:TUP:b	!	!
!	!	!LO:SIC:s=(<24B-</LL:v	!	!
.	.	(>24B-</LL	.	.
.	.	24c</	.	.
.	.	24B-</JJ	.	.
4r	.	8An</L	.	<
.	.	8B-</J	.	.
=71	=71	=71	=71	=71
4GG\	.	8.c</L	.	.
.	.	16B-</Jk	.	.
(>4b-> 4g>'>/	.	4.e-</)	.	[
4ee-> 4b->'>/)	.	.	.	.
!	!	!LO:MO:mod=!null:null	!	!
!	!	!LO:TUP:b	!	!
.	.	(>24c</LL	.	.
.	.	24d-X</	.	.
.	.	24c</JJ	.	.
4r	.	8Bn</L	.	.
.	.	8c</J	.	.
=72	=72	=72	=72	=72
!	!	!	!	!LO:MO:mod=!LO&colon;HP&colon;b&colon;i&colon;t=molto cresc.
!	!	!	!	!LO:HP:t=molto cres&colon;
4BB-\	.	8.d-X</L	.	<
.	.	16c</Jk	.	.
(>4cc> 4b->'>/	.	4.en</)	.	.
4een> 4cc>'>/)	.	.	.	.
!	!	!LO:MO:mod=!null:null	!	!
!	!	!LO:TUP:b	!	!
.	.	(>24c</LL	.	.
.	.	24d-</	.	.
.	.	24c</JJ	.	.
4r	.	8Bn</L	.	.
.	.	8c</J	.	.
!!linebreak:original
=73	=73	=73	=73	=73
*xywh-7:294,1598,2709,753	*	*xywh-7:294,1598,2709,753	*	*
4AA-\	.	8.d-X</L	.	.
.	.	16c</Jk	.	.
(>4cc> 4a->'>/	.	4.f</)	.	.
4ff> 4cc>'>/)	.	.	.	.
!	!	!LO:MO:mod=!null:null	!	!
!	!	!LO:TUP:b	!	!
.	.	N(24c</LL	.	.
.	.	24d-</	.	.
.	.	24c</JJ	.	.
4r	.	8Bn</L	.	.
.	.	8c</J	.	.
=74	=74	=74	=74	=74
!	!	!LO:MO:mod=!LO&colon;TX&colon;b&colon;t=m.d. 	!	!
!	!	!LO:TX:b:B:t=m.d.	!	!LO:DY:a
4FF\	.	4.a-\N)	.	f
(>4ff> 4cc>'>/	.	.	.	.
.	.	(<8g\	.	.
!	!	!LO:MO:mod=!null:null	!	!
!	!	!LO:TUP:a	!	!
4aa-> 4cc>'>/)	.	<12b-\L	.	.
.	.	12a-\	.	.
.	.	12g\J	.	.
!	!	!LO:MO:mod=!null:null	!	!
!	!	!LO:TUP:b	!	!
4r	.	12f</L	.	.
.	.	12e-</	.	.
.	.	12c</J)	.	.
=75	=75	=75	=75	=75
4BB-\	.	(8.e-</L	.	.
.	.	16G</Jk	.	.
(>4b-> 4g>'>/	.	4.B-</)	.	.
4ee-> 4b->'>/)	.	.	.	.
.	.	(>8B-</L	.	.
4r	.	8An</	.	.
.	.	8B-</J	.	.
=76	=76	=76	=76	=76
4BB- 4BBB-\	.	8.Bn</L	.	.
.	.	16c</Jk	.	.
(>4ee-> 4an>'>/	.	4.f</)	.	.
4ff> 4ee->'>/)	.	.	.	.
!	!	!LO:MO:mod=!null:null	!	!
!	!	!LO:TUP:b	!	!
.	.	(>24c</LL	.	<
.	.	24d</	.	.
.	.	24c</JJ	.	.
4r	.	8B</L	.	.
.	.	8c</J	.	.
!!linebreak:original
=77	=77	=77	=77	=77
*xywh-7:290,2189,2685,801	*	*xywh-7:290,2189,2685,801	*	*
4BB- 4BBB-\	.	8c#X</L	.	.
.	.	8d</J	.	.
(>4dd> 4a-X>'>/	.	2b-</)	.	[
4aa-> 4dd>'>/)	.	.	.	.
4r	.	(8.d</L	.	>
.	.	16e-</Jk)	.	.
=78	=78	=78	=78	=78
4EE-\	.	[2e-</	.	]]
(>4gg> 4ee-> 4b->'>/	.	.	.	.
4aa-> 4ee-> 4cc>'>/)	.	8e-</L]	.	<
!	!	!LO:MO:mod=!null:null	!	!
!	!	!LO:TUP:b	!	!
.	.	(>24e-</L	.	.
.	.	24f</	.	.
.	.	24e-</JJ	.	.
4r	.	8d</L	.	.
.	.	8e-</J	.	[[
=79	=79	=79	=79	=79
4EE-\	.	8f<^/L	.	>
.	.	8e-</J	.	.
(>4gg> 4ee-> 4b->'>/	.	4.B-</)	.	]
4ff> 4dd> 4b-> 4a->'>/)	.	.	.	<
!	!	!LO:MO:mod=!null:null	!	!
!	!	!LO:TUP:b	!	!
.	.	(>24B-</LL	.	.
.	.	24c</	.	.
.	.	24B-</JJ	.	.
4r	.	8An</L	.	.
.	.	8B-</J	.	.
=80	=80	=80	=80	=80
4EE-\	.	8c<^/L	.	[
.	.	8B-</J	.	>
(>4b-> 4g> 4e->'>/	.	4.E-</)	.	.
4dd-X> 4b-> 4g>'>/)	.	.	.	]
!	!	!LO:MO:mod=!null:null	!	!
!	!	!LO:TUP:b	!	!
.	.	(>24E-</LL	.	.
.	.	24F</	.	.
.	.	24E-</JJ	.	.
4rEE	.	8D</L	.	.
.	.	8E-</J	.	.
!!linebreak:original
=81	=81	=81	=81	=81
*xywh-7:310,2876,2729,805	*	*xywh-7:310,2876,2729,805	*	*
4EE-\	.	8F</L	.	.
!	!	!	!	!LO:MO:mod=!LO&colon;HP&colon;b&colon;i&colon;t=decresc. e rall.
!	!	!	!	!LO:HP:t=decres&colon;  e   rall&colon;
.	.	8E-</	.	>
4cc> 4a-> 4e->'>/	.	8C</	.	.
.	.	8E-</J)	.	.
4EE-\	.	(8F</L	.	.
.	.	8E-</	.	.
4cc-X> 4a-> 4e->'>/	.	8C-X</	.	.
.	.	8E-</J)	.	.
=82	=82	=82	=82	=82
4EE-\	.	[1E-<	.	.
!LO:MO:mod=!null:null	!	!	!	!
!LO:TX:a:B:t=m.g.	!	!	!	!LO:DY:rj
!	!	!LO:MO:mod=!LO&colon;TX&colon;a&colon;t=m.g.	!	!
!	!	!null	!	!
(4g> 4e-> 4B->'/	.	.	.	p
4b-> 4g> 4e->'/	.	.	.	.
4ee-> 4b-> 4g>'/	.	.	.	.
=83	=83	=83	=83	=83
4gg> 4ee-> 4b->'>\	.	1E-<_>	.	.
4ee-> 4b-> 4g>'>\	.	.	.	.
4gg> 4ee-> 4b->'>\	.	.	.	.
4bb-> 4gg> 4ee->'\>	.	.	.	.
=84	=84	=84	=84	=84
4eee-> 4bb-> 4gg>'>\)	.	4E-<\]	.	.
4r	.	4r	.	.
2r	.	2r	.	.
=85	=85	=85	=85	=85
2.AA- 2.AAA-\	.	2.e- 2.c 2.A-< 2.E-</	.	pp
4r	.	4r	.	.
=86	=86	=86	=86	=86
1EE-:: 1EEE-::;	.	1g:: 1e-:: 1B-:: 1G;::	.	.
==	==	==	==	==
*-	*-	*-	*-	*-
!!!system-decoration: {(s1,s2)}
!!!RDF**kern: > = above
!!!RDF**kern: < = below
!!!RDF**kern: N = link
!!!filter-modern: tie -s | humtr -p | sic -sq | shed -e "s/LO:DY:(a|b|rj)/LO:dy:$1/L" | shed -e "s/TX(.*):t=P:/tx$1:t=P:/LG" | modori -m | shed -e "s/yy//" | shed -k -e "s/\(y([^y])/($1/" | shed -e "s/-//B" | shed -e "s/^(\d+[\/\\]right)/$1yy/I; s/^(\d+[\/\\]left)/$1yy/I" | shed -e "s/^(X?)rep$/$1REP/I" | shed -e "s/^custos:/Xcustos:/I" | shed -k -e "s/:TUP:/:tup:/L" | rid -lid
!!!ENC: Arkadiusz Malec
!!!END: 2022-04-11
!!!ENC: Katarzyna Serwa
!!!END: 2022-05-04
!!!EED-modern: Antoni Szymański
!!!END-modern: 2022-08-07
!!!IIIF: https://polona.pl/iiif/item/MTA0ODA5Ng/manifest.json
!!!ENC-iiif: Marta Opryszak
!!!END-iiif: 2022-08-22
!!!YEC: Copyright 2022 Narodowy Instytut Fryderyka Chopina (https://polishscores.org)
!!!YEM: License CC-BY-4.0 (https://creativecommons.org/licenses/by/4.0)
